image/github.svg

<?xml version="1.0" encoding="UTF-8"?>
<svg width="28px" height="28px" viewBox="0 0 28 28" version="1.1" xmlns="http://www.w3.org/2000/svg" xmlns:xlink="http://www.w3.org/1999/xlink">
    <title>矩形备份 24</title>
    <g id="Flat-Web" stroke="none" stroke-width="1" fill="none" fill-rule="evenodd" stroke-linecap="round">
        <g id="landingpage" transform="translate(-164.000000, -398.000000)" stroke="#3381FF" stroke-width="1.5">
            <g id="编组-37" transform="translate(120.000000, 384.000000)">
                <g id="编组-4备份" transform="translate(44.000000, 14.000000)">
                    <path d="M16.5507364,16.462911 C17.6979568,16.2404796 18.7389364,15.854831 19.5481523,15.2886906 C20.9300955,14.3218532 21.6363636,12.828589 21.6363636,11.3532671 C21.6363636,10.3183113 21.2157432,9.35205269 20.4875205,8.5336513 C20.0817432,8.07761358 21.268625,4.67498802 20.2140909,5.13325184 C19.1595568,5.59151566 17.6133364,6.60585789 16.8028318,6.38199737 C15.9351023,6.14232268 14.9895295,6.01064474 14,6.01064474 C13.1405273,6.01064474 12.314225,6.10998198 11.5432864,6.29314059 C10.42265,6.55936813 9.35093409,5.56542583 8.27272727,5.13325184 C7.19450136,4.70107785 7.78285455,8.22039528 7.46260455,8.59050575 C6.76511341,9.3966191 6.36363636,10.3421305 6.36363636,11.3532671 C6.36363636,12.828589 7.218365,14.3218532 8.60027955,15.2886906 C9.52084318,15.9326998 10.6753182,16.3431471 11.9668659,16.5454545" id="路径"></path>
                    <path d="M12.0909091,16.5454545 C11.2424487,17.2025961 10.8181818,17.8265507 10.8181818,18.4174215 C10.8181818,19.0082408 10.8181818,20.5054639 10.8181818,22.9090909" id="路径"></path>
                    <path d="M16.5454545,16.5454545 C17.3939394,17.2769572 17.8181818,17.9337763 17.8181818,18.5158611 C17.8181818,19.0979967 17.8181818,20.5623728 17.8181818,22.9090909" id="路径"></path>
                    <path d="M6.36363636,17.8181818 C6.7448989,17.8625682 7.02767204,18.0294919 7.21195155,18.3189528 C7.48837081,18.7530836 8.51589682,20.3636364 9.68271194,20.3636364 C10.460617,20.3636364 9.77848673,20.3636364 10.1818182,20.3636364" id="路径"></path>
                </g>
            </g>
        </g>
    </g>
</svg>

<svg width="28" height="28" xmlns="http://www.w3.org/2000/svg"><g stroke="#3381FF" stroke-width="1.5" fill="none" fill-rule="evenodd" stroke-linecap="round"><path d="M16.55 16.463c1.148-.223 2.189-.608 2.998-1.174 1.382-.967 2.088-2.46 2.088-3.936 0-1.035-.42-2-1.148-2.82-.406-.455.78-3.858-.274-3.4-1.054.459-2.6 1.473-3.411 1.249A10.549 10.549 0 0 0 14 6.011c-.86 0-1.686.099-2.457.282-1.12.266-2.192-.728-3.27-1.16-1.078-.432-.49 3.087-.81 3.458-.698.806-1.1 1.751-1.1 2.762 0 1.476.855 2.969 2.237 3.936.92.644 2.075 1.054 3.367 1.256M12.09 16.545c-.848.658-1.272 1.282-1.272 1.872v4.492M16.545 16.545c.849.732 1.273 1.389 1.273 1.97v4.394M6.364 17.818c.38.045.664.211.848.501.276.434 1.304 2.045 2.47 2.045h.5"/></g></svg>
